X: 12767
T: Father Tom's Wager
R: jig
M: 6/8
K: Gmajor
dge dBG|AEF GD[BB,]|[GG,][BB,]D GAB|cBc ABc|
dge dBG|AEF GD[BB,]|[GG,][BB,]D GAB|cAF G3:|
|:Bdg bag|fed cAF|DGG FGA|GAB ABc|Bdg bag|
fed cAF|DGG FGA|BGF G3:|c3 Bd F|AGF G3||

